X: 20287
T: Joey's Delight
R: reel
M: 4/4
K: Edorian
GBEF GEBE|GEBd AFDF|GBEF GBec|dBAF EB,EF|
GBEF GEBE|dEGB AFD2|EFGA Bd (3edB|dBAF E4:|
Beef g2ag|fdad fded|Beef g2bg|agfg e2dA|
Beef g2ag|fdBc defa|gefd efdB|AGFD E2FA|
Beef g2ag|fddc defa|gfed BABd|(3efg fg eBef|
g2fg edBA|G2FG EDB,2|EFGA Bd (3edB|dBAF E4||

